packages/components/src/components/icon/common/ic-master-card-light.svg

<svg width="128" height="80" viewBox="0 0 128 80" fill="none" xmlns="http://www.w3.org/2000/svg">
<path d="M38.3865 70.8137V66.5697C38.3865 64.9764 37.4577 63.9188 35.8712 63.9053C34.9394 63.8451 34.0513 64.3074 33.5661 65.1053C33.1261 64.3326 32.2919 63.8698 31.4034 63.9053C30.6181 63.8593 29.8682 64.2369 29.4373 64.8951V64.0748H28.1221V70.8137H29.478V66.9832C29.4195 66.517 29.5699 66.0486 29.8888 65.7035C30.2078 65.3584 30.6628 65.1717 31.1322 65.1934C32.0746 65.1934 32.6102 65.8307 32.6102 66.9697V70.8476H33.9661V66.9832C33.9125 66.518 34.0645 66.0525 34.3824 65.7085C34.7002 65.3646 35.1523 65.1765 35.6204 65.1934C36.5966 65.1934 37.1119 65.8307 37.1119 66.9697V70.8476L38.3865 70.8137ZM59.7085 64.0748H57.3289V62.0409H55.9729V64.0748H54.617V65.3019H55.9729V68.4883C55.9729 70.0476 56.5085 70.9832 58.1899 70.9832C58.8221 70.9846 59.4413 70.8033 59.9729 70.4612L59.5594 69.2612C59.1823 69.4966 58.7495 69.6277 58.3051 69.6409C57.6272 69.6409 57.3017 69.1934 57.3017 68.5154V65.3019H59.6814L59.7085 64.0748ZM71.8509 63.9053C71.132 63.8956 70.4636 64.2738 70.1017 64.8951V64.0748H68.7458V70.8137H70.1017V67.0171C70.1017 65.9053 70.617 65.1866 71.5526 65.1866C71.8571 65.1815 72.1595 65.2392 72.4407 65.3561L72.8814 64.0883C72.5516 63.9661 72.2026 63.9041 71.8509 63.9053ZM53.4983 64.5832C52.6946 64.098 51.765 63.8621 50.8272 63.9053C49.1729 63.9053 48.1627 64.712 48.1627 66.0476C48.1627 67.1459 48.9017 67.8103 50.3661 68.0205L51.0441 68.1222C51.8305 68.2307 52.2509 68.5154 52.2509 68.8951C52.2509 69.4171 51.6746 69.7561 50.7051 69.7561C49.9227 69.7915 49.1527 69.5516 48.5289 69.0781L47.8509 70.1358C48.6789 70.7204 49.6713 71.0267 50.6848 71.0103C52.5763 71.0103 53.6136 70.1087 53.6136 68.8205C53.6136 67.6409 52.8204 67.0307 51.3831 66.7866L50.7051 66.6917C50.0882 66.6036 49.539 66.407 49.539 65.9595C49.539 65.512 50.0611 65.1256 50.8407 65.1256C51.5569 65.1401 52.2573 65.3385 52.8746 65.7019L53.4983 64.5832ZM73.3424 67.4171C73.2782 68.3561 73.6161 69.2781 74.2718 69.9532C74.9275 70.6283 75.8393 70.9929 76.7797 70.9561C77.6378 70.995 78.4786 70.7066 79.1322 70.1493L78.4543 69.0917C77.9693 69.4809 77.3676 69.6958 76.7458 69.7019C75.5799 69.5747 74.6968 68.59 74.6968 67.4171C74.6968 66.2443 75.5799 65.2596 76.7458 65.1324C77.3663 65.1391 77.9671 65.3513 78.4543 65.7358L79.1322 64.6849C78.0779 63.8159 76.6175 63.6314 75.3802 64.211C74.1429 64.7905 73.3498 66.0305 73.3424 67.3968V67.4171ZM64.1492 63.8781C62.2305 63.8781 60.9153 65.3019 60.9153 67.4036C60.9153 69.5053 62.2712 70.9561 64.2441 70.9561C65.2359 70.9965 66.2058 70.6571 66.956 70.007L66.278 69.0103C65.7401 69.4444 65.0709 69.6834 64.3797 69.6883C63.3427 69.744 62.446 68.9728 62.3458 67.9392H67.2339C67.2339 67.7561 67.2339 67.5731 67.2339 67.3764C67.2136 65.329 65.9797 63.9053 64.1492 63.9053V63.8781ZM64.1492 65.1324C64.6063 65.1232 65.0476 65.2998 65.3722 65.6218C65.6967 65.9438 65.8768 66.3837 65.8712 66.8409H62.3119C62.3594 65.8822 63.1625 65.1363 64.1221 65.1595L64.1492 65.1324ZM46.4339 67.4171V64.0273H45.0916V64.8476C44.5802 64.214 43.7963 63.8636 42.9831 63.9053C41.1526 63.9053 39.756 65.3832 39.756 67.4442C39.756 69.5053 41.1526 70.9832 42.9831 70.9832C43.8093 71.018 44.6009 70.6488 45.1051 69.9934V70.8137H46.4204L46.4339 67.4171ZM41.139 67.4171C41.0842 66.8394 41.2723 66.265 41.6582 65.8316C42.044 65.3982 42.5928 65.1449 43.1729 65.1324C44.3729 65.1324 45.1661 66.1087 45.1661 67.4171C45.1661 68.7256 44.3729 69.7019 43.1729 69.7019C42.5932 69.6963 42.0419 69.4499 41.651 69.0217C41.2601 68.5935 41.0648 68.0221 41.1119 67.4442L41.139 67.4171ZM91.6407 63.8781C90.9122 63.8585 90.2311 64.2381 89.8644 64.868V64.0476H88.5628V70.7866H89.878V66.99C89.878 65.8781 90.4 65.1595 91.3288 65.1595C91.6334 65.1544 91.9357 65.2121 92.217 65.329L92.6577 64.0612C92.3219 63.9466 91.9682 63.8937 91.6136 63.9053L91.6407 63.8781ZM86.6102 67.4171V64.0273H85.2678V64.8476C84.7614 64.1949 83.9713 63.8264 83.1458 63.8578C81.3085 63.8578 79.9119 65.3358 79.9119 67.3968C79.9119 69.4578 81.3085 70.9358 83.1458 70.9358C83.9713 70.9672 84.7614 70.5986 85.2678 69.9459V70.7663H86.5831L86.6102 67.4171ZM81.3085 67.4171C81.2537 66.8394 81.4418 66.265 81.8277 65.8316C82.2135 65.3982 82.7623 65.1449 83.3424 65.1324C84.5492 65.1324 85.3763 66.1087 85.3763 67.4171C85.3763 68.7256 84.5831 69.7019 83.3424 69.7019C82.7627 69.6963 82.2114 69.4499 81.8205 69.0217C81.4296 68.5935 81.2343 68.0221 81.2814 67.4442L81.3085 67.4171ZM99.817 67.4171V61.3154H98.5017V64.8409C97.9953 64.1882 97.2052 63.8196 96.3797 63.851C94.5424 63.851 93.1458 65.329 93.1458 67.39C93.1458 69.451 94.5424 70.929 96.3797 70.929C97.2052 70.9604 97.9953 70.5919 98.5017 69.9392V70.7595H99.817V67.4171ZM94.5153 67.4171C94.4605 66.8394 94.6486 66.265 95.0344 65.8316C95.4203 65.3982 95.9691 65.1449 96.5492 65.1324C97.756 65.1324 98.5831 66.1087 98.5831 67.4171C98.5831 68.7256 97.7899 69.7019 96.5492 69.7019C95.973 69.6907 95.4271 69.4419 95.0406 69.0144C94.6542 68.5868 94.4616 68.0186 94.5085 67.4442L94.5153 67.4171Z" fill="black"/>
<circle cx="49" cy="33" r="25" fill="#EB001B"/>
<circle cx="79" cy="33" r="25" fill="#F79E1B"/>
<path fill-rule="evenodd" clip-rule="evenodd" d="M64 53.0017C70.0722 48.4407 74 41.179 74 32.9999C74 24.8208 70.0722 17.5591 64 12.998C57.9278 17.5591 54 24.8208 54 32.9999C54 41.179 57.9278 48.4407 64 53.0017Z" fill="#FF5F00"/>
</svg>

<svg width="128" height="80" fill="none" xmlns="http://www.w3.org/2000/svg"><path d="M38.386 70.814V66.57c0-1.594-.928-2.651-2.515-2.665a2.508 2.508 0 0 0-2.305 1.2 2.38 2.38 0 0 0-2.163-1.2 2.197 2.197 0 0 0-1.966.99v-.82h-1.315v6.739h1.356v-3.83a1.593 1.593 0 0 1 1.654-1.79c.943 0 1.478.637 1.478 1.776v3.878h1.356v-3.865a1.607 1.607 0 0 1 1.654-1.79c.977 0 1.492.638 1.492 1.777v3.878l1.274-.034Zm21.322-6.74h-2.38v-2.033h-1.355v2.034h-1.356v1.227h1.356v3.186c0 1.56.535 2.495 2.217 2.495a3.282 3.282 0 0 0 1.783-.522l-.414-1.2a2.51 2.51 0 0 1-1.254.38c-.678 0-1.003-.448-1.003-1.126v-3.213h2.38l.026-1.227Zm12.143-.169a1.993 1.993 0 0 0-1.75.99v-.82h-1.355v6.739h1.356v-3.797c0-1.112.515-1.83 1.45-1.83.305-.005.607.052.889.17l.44-1.269a2.937 2.937 0 0 0-1.03-.183Zm-18.353.678a4.746 4.746 0 0 0-2.67-.678c-1.655 0-2.665.807-2.665 2.143 0 1.098.739 1.762 2.203 1.972l.678.102c.787.109 1.207.393 1.207.773 0 .522-.576.861-1.546.861a3.349 3.349 0 0 1-2.176-.678l-.678 1.058a4.78 4.78 0 0 0 2.834.874c1.891 0 2.929-.901 2.929-2.19 0-1.18-.794-1.79-2.23-2.033l-.679-.095c-.617-.088-1.166-.285-1.166-.732 0-.448.522-.834 1.302-.834a4.176 4.176 0 0 1 2.034.576l.623-1.119Zm19.844 2.834a3.315 3.315 0 0 0 3.438 3.54 3.39 3.39 0 0 0 2.352-.808l-.678-1.057a2.773 2.773 0 0 1-1.708.61 2.298 2.298 0 0 1 0-4.57c.62.007 1.221.22 1.708.604l.678-1.051a3.539 3.539 0 0 0-5.79 2.712v.02Zm-9.193-3.539c-1.919 0-3.234 1.424-3.234 3.526 0 2.101 1.356 3.552 3.33 3.552a3.899 3.899 0 0 0 2.711-.949l-.678-.997a3.057 3.057 0 0 1-1.898.678 1.939 1.939 0 0 1-2.034-1.749h4.888v-.563c-.02-2.047-1.254-3.47-3.085-3.47v-.028Zm0 1.254a1.688 1.688 0 0 1 1.722 1.709h-3.56a1.77 1.77 0 0 1 1.811-1.681l.027-.028Zm-17.715 2.285v-3.39h-1.342v.82a2.542 2.542 0 0 0-2.109-.942c-1.83 0-3.227 1.478-3.227 3.54 0 2.06 1.397 3.538 3.227 3.538a2.542 2.542 0 0 0 2.122-.99v.82h1.315l.014-3.396Zm-5.295 0a2.088 2.088 0 0 1 2.034-2.285c1.2 0 1.993.977 1.993 2.285 0 1.309-.793 2.285-1.993 2.285a2.088 2.088 0 0 1-2.061-2.258l.027-.027Zm50.502-3.539c-.729-.02-1.41.36-1.777.99v-.82h-1.301v6.739h1.315V66.99c0-1.112.522-1.83 1.45-1.83.305-.006.608.052.889.169l.44-1.268a2.935 2.935 0 0 0-1.043-.156l.027-.027Zm-5.03 3.54v-3.39h-1.343v.82a2.563 2.563 0 0 0-2.122-.99c-1.838 0-3.234 1.478-3.234 3.539 0 2.06 1.396 3.539 3.234 3.539a2.563 2.563 0 0 0 2.122-.99v.82h1.315l.027-3.349Zm-5.303 0a2.088 2.088 0 0 1 2.034-2.286c1.207 0 2.034.977 2.034 2.285 0 1.309-.793 2.285-2.034 2.285a2.088 2.088 0 0 1-2.06-2.258l.026-.027Zm18.509 0v-6.103h-1.315v3.526a2.563 2.563 0 0 0-2.122-.99c-1.838 0-3.234 1.478-3.234 3.539s1.396 3.539 3.234 3.539a2.563 2.563 0 0 0 2.122-.99v.82h1.315v-3.342Zm-5.302 0a2.088 2.088 0 0 1 2.034-2.286c1.207 0 2.034.977 2.034 2.285 0 1.309-.793 2.285-2.034 2.285a2.088 2.088 0 0 1-2.04-2.258l.006-.027Z" fill="#000"/><circle cx="49" cy="33" r="25" fill="#EB001B"/><circle cx="79" cy="33" r="25" fill="#F79E1B"/><path fill-rule="evenodd" clip-rule="evenodd" d="M64 53.002C70.072 48.44 74 41.179 74 33c0-8.18-3.928-15.44-10-20.002C57.928 17.559 54 24.821 54 33c0 8.179 3.928 15.44 10 20.002Z" fill="#FF5F00"/></svg>
